bernoullicharts/log_1_x_two-coin_special_case__mean.svg

<?xml version="1.0" encoding="utf-8" standalone="no"?>
<!DOCTYPE svg PUBLIC "-//W3C//DTD SVG 1.1//EN"
  "http://www.w3.org/Graphics/SVG/1.1/DTD/svg11.dtd">
<!-- Created with matplotlib (https://matplotlib.org/) -->
<svg height="345.6pt" version="1.1" viewBox="0 0 460.8 345.6" width="460.8pt" xmlns="http://www.w3.org/2000/svg" xmlns:xlink="http://www.w3.org/1999/xlink">
 <defs>
  <style type="text/css">
*{stroke-linecap:butt;stroke-linejoin:round;}
  </style>
 </defs>
 <g id="figure_1">
  <g id="patch_1">
   <path d="M 0 345.6 
L 460.8 345.6 
L 460.8 0 
L 0 0 
z
" style="fill:#ffffff;"/>
  </g>
  <g id="axes_1">
   <g id="patch_2">
    <path d="M 57.6 307.584 
L 414.72 307.584 
L 414.72 41.472 
L 57.6 41.472 
z
" style="fill:#ffffff;"/>
   </g>
   <g id="matplotlib.axis_1">
    <g id="xtick_1">
     <g id="line2d_1">
      <defs>
       <path d="M 0 0 
L 0 3.5 
" id="mae0b82c5bc" style="stroke:#000000;stroke-width:0.8;"/>
      </defs>
      <g>
       <use style="stroke:#000000;stroke-width:0.8;" x="73.800255" xlink:href="#mae0b82c5bc" y="307.584"/>
      </g>
     </g>
     <g id="text_1">
      <text style="font-family:DejaVu Sans;font-size:10px;font-style:normal;font-weight:normal;text-anchor:middle;" transform="rotate(-0, 73.800255, 322.182437)" x="73.800255" y="322.182437">0.0</text>
     </g>
    </g>
    <g id="xtick_2">
     <g id="line2d_2">
      <g>
       <use style="stroke:#000000;stroke-width:0.8;" x="138.744153" xlink:href="#mae0b82c5bc" y="307.584"/>
      </g>
     </g>
     <g id="text_2">
      <text style="font-family:DejaVu Sans;font-size:10px;font-style:normal;font-weight:normal;text-anchor:middle;" transform="rotate(-0, 138.744153, 322.182437)" x="138.744153" y="322.182437">0.2</text>
     </g>
    </g>
    <g id="xtick_3">
     <g id="line2d_3">
      <g>
       <use style="stroke:#000000;stroke-width:0.8;" x="203.688051" xlink:href="#mae0b82c5bc" y="307.584"/>
      </g>
     </g>
     <g id="text_3">
      <text style="font-family:DejaVu Sans;font-size:10px;font-style:normal;font-weight:normal;text-anchor:middle;" transform="rotate(-0, 203.688051, 322.182437)" x="203.688051" y="322.182437">0.4</text>
     </g>
    </g>
    <g id="xtick_4">
     <g id="line2d_4">
      <g>
       <use style="stroke:#000000;stroke-width:0.8;" x="268.631949" xlink:href="#mae0b82c5bc" y="307.584"/>
      </g>
     </g>
     <g id="text_4">
      <text style="font-family:DejaVu Sans;font-size:10px;font-style:normal;font-weight:normal;text-anchor:middle;" transform="rotate(-0, 268.631949, 322.182437)" x="268.631949" y="322.182437">0.6</text>
     </g>
    </g>
    <g id="xtick_5">
     <g id="line2d_5">
      <g>
       <use style="stroke:#000000;stroke-width:0.8;" x="333.575847" xlink:href="#mae0b82c5bc" y="307.584"/>
      </g>
     </g>
     <g id="text_5">
      <text style="font-family:DejaVu Sans;font-size:10px;font-style:normal;font-weight:normal;text-anchor:middle;" transform="rotate(-0, 333.575847, 322.182437)" x="333.575847" y="322.182437">0.8</text>
     </g>
    </g>
    <g id="xtick_6">
     <g id="line2d_6">
      <g>
       <use style="stroke:#000000;stroke-width:0.8;" x="398.519745" xlink:href="#mae0b82c5bc" y="307.584"/>
      </g>
     </g>
     <g id="text_6">
      <text style="font-family:DejaVu Sans;font-size:10px;font-style:normal;font-weight:normal;text-anchor:middle;" transform="rotate(-0, 398.519745, 322.182437)" x="398.519745" y="322.182437">1.0</text>
     </g>
    </g>
    <g id="text_7">
     <text style="font-family:DejaVu Sans;font-size:10px;font-style:normal;font-weight:normal;text-anchor:middle;" transform="rotate(-0, 236.16, 335.860562)" x="236.16" y="335.860562">Input Coin's Heads Probability (λ)</text>
    </g>
   </g>
   <g id="matplotlib.axis_2">
    <g id="ytick_1">
     <g id="line2d_7">
      <defs>
       <path d="M 0 0 
L -3.5 0 
" id="m3c548f5d7b" style="stroke:#000000;stroke-width:0.8;"/>
      </defs>
      <g>
       <use style="stroke:#000000;stroke-width:0.8;" x="57.6" xlink:href="#m3c548f5d7b" y="295.488"/>
      </g>
     </g>
     <g id="text_8">
      <text style="font-family:DejaVu Sans;font-size:10px;font-style:normal;font-weight:normal;text-anchor:end;" transform="rotate(-0, 50.6, 299.287219)" x="50.6" y="299.287219">0.0</text>
     </g>
    </g>
    <g id="ytick_2">
     <g id="line2d_8">
      <g>
       <use style="stroke:#000000;stroke-width:0.8;" x="57.6" xlink:href="#m3c548f5d7b" y="262.165686"/>
      </g>
     </g>
     <g id="text_9">
      <text style="font-family:DejaVu Sans;font-size:10px;font-style:normal;font-weight:normal;text-anchor:end;" transform="rotate(-0, 50.6, 265.964905)" x="50.6" y="265.964905">0.1</text>
     </g>
    </g>
    <g id="ytick_3">
     <g id="line2d_9">
      <g>
       <use style="stroke:#000000;stroke-width:0.8;" x="57.6" xlink:href="#m3c548f5d7b" y="228.843372"/>
      </g>
     </g>
     <g id="text_10">
      <text style="font-family:DejaVu Sans;font-size:10px;font-style:normal;font-weight:normal;text-anchor:end;" transform="rotate(-0, 50.6, 232.642591)" x="50.6" y="232.642591">0.2</text>
     </g>
    </g>
    <g id="ytick_4">
     <g id="line2d_10">
      <g>
       <use style="stroke:#000000;stroke-width:0.8;" x="57.6" xlink:href="#m3c548f5d7b" y="195.521058"/>
      </g>
     </g>
     <g id="text_11">
      <text style="font-family:DejaVu Sans;font-size:10px;font-style:normal;font-weight:normal;text-anchor:end;" transform="rotate(-0, 50.6, 199.320277)" x="50.6" y="199.320277">0.3</text>
     </g>
    </g>
    <g id="ytick_5">
     <g id="line2d_11">
      <g>
       <use style="stroke:#000000;stroke-width:0.8;" x="57.6" xlink:href="#m3c548f5d7b" y="162.198744"/>
      </g>
     </g>
     <g id="text_12">
      <text style="font-family:DejaVu Sans;font-size:10px;font-style:normal;font-weight:normal;text-anchor:end;" transform="rotate(-0, 50.6, 165.997963)" x="50.6" y="165.997963">0.4</text>
     </g>
    </g>
    <g id="ytick_6">
     <g id="line2d_12">
      <g>
       <use style="stroke:#000000;stroke-width:0.8;" x="57.6" xlink:href="#m3c548f5d7b" y="128.87643"/>
      </g>
     </g>
     <g id="text_13">
      <text style="font-family:DejaVu Sans;font-size:10px;font-style:normal;font-weight:normal;text-anchor:end;" transform="rotate(-0, 50.6, 132.675649)" x="50.6" y="132.675649">0.5</text>
     </g>
    </g>
    <g id="ytick_7">
     <g id="line2d_13">
      <g>
       <use style="stroke:#000000;stroke-width:0.8;" x="57.6" xlink:href="#m3c548f5d7b" y="95.554116"/>
      </g>
     </g>
     <g id="text_14">
      <text style="font-family:DejaVu Sans;font-size:10px;font-style:normal;font-weight:normal;text-anchor:end;" transform="rotate(-0, 50.6, 99.353334)" x="50.6" y="99.353334">0.6</text>
     </g>
    </g>
    <g id="ytick_8">
     <g id="line2d_14">
      <g>
       <use style="stroke:#000000;stroke-width:0.8;" x="57.6" xlink:href="#m3c548f5d7b" y="62.231802"/>
      </g>
     </g>
     <g id="text_15">
      <text style="font-family:DejaVu Sans;font-size:10px;font-style:normal;font-weight:normal;text-anchor:end;" transform="rotate(-0, 50.6, 66.03102)" x="50.6" y="66.03102">0.7</text>
     </g>
    </g>
    <g id="text_16">
     <text style="font-family:DejaVu Sans;font-size:10px;font-style:normal;font-weight:normal;text-anchor:middle;" transform="rotate(-90, 28.617187, 174.528)" x="28.617187" y="174.528">Simulated Mean / Function Value</text>
    </g>
   </g>
   <g id="line2d_15">
    <path clip-path="url(#p48004491ce)" d="M 73.832727 295.454679 
L 77.112066 292.106674 
L 80.391405 288.791974 
L 83.670744 285.509921 
L 86.950083 282.25988 
L 90.229421 279.041231 
L 93.50876 275.853375 
L 96.788099 272.695727 
L 100.067438 269.567721 
L 103.346777 266.468805 
L 106.626116 263.398443 
L 109.905455 260.356113 
L 113.184793 257.341309 
L 116.464132 254.353537 
L 119.743471 251.392316 
L 123.02281 248.457178 
L 126.302149 245.547669 
L 129.581488 242.663344 
L 132.860826 239.803771 
L 136.140165 236.968529 
L 139.419504 234.157207 
L 142.698843 231.369406 
L 145.978182 228.604734 
L 149.257521 225.862812 
L 152.53686 223.143268 
L 155.816198 220.445739 
L 159.095537 217.769872 
L 162.374876 215.115321 
L 165.654215 212.481751 
L 168.933554 209.868832 
L 172.212893 207.276242 
L 175.492231 204.703667 
L 178.77157 202.150802 
L 182.050909 199.617346 
L 185.330248 197.103006 
L 188.609587 194.607496 
L 191.888926 192.130536 
L 195.168264 189.671853 
L 198.447603 187.231178 
L 201.726942 184.80825 
L 205.006281 182.402812 
L 208.28562 180.014614 
L 211.564959 177.64341 
L 214.844298 175.288961 
L 218.123636 172.951031 
L 221.402975 170.629389 
L 224.682314 168.323812 
L 227.961653 166.034077 
L 231.240992 163.759968 
L 234.520331 161.501275 
L 237.799669 159.257788 
L 241.079008 157.029305 
L 244.358347 154.815627 
L 247.637686 152.616557 
L 250.917025 150.431905 
L 254.196364 148.261483 
L 257.475702 146.105106 
L 260.755041 143.962594 
L 264.03438 141.833769 
L 267.313719 139.718459 
L 270.593058 137.616491 
L 273.872397 135.5277 
L 277.151736 133.451921 
L 280.431074 131.388993 
L 283.710413 129.338757 
L 286.989752 127.301059 
L 290.269091 125.275746 
L 293.54843 123.262668 
L 296.827769 121.261679 
L 300.107107 119.272634 
L 303.386446 117.295391 
L 306.665785 115.329812 
L 309.945124 113.375759 
L 313.224463 111.433098 
L 316.503802 109.501697 
L 319.78314 107.581426 
L 323.062479 105.672157 
L 326.341818 103.773766 
L 329.621157 101.886129 
L 332.900496 100.009125 
L 336.179835 98.142634 
L 339.459174 96.28654 
L 342.738512 94.440728 
L 346.017851 92.605083 
L 349.29719 90.779496 
L 352.576529 88.963855 
L 355.855868 87.158054 
L 359.135207 85.361986 
L 362.414545 83.575547 
L 365.693884 81.798634 
L 368.973223 80.031147 
L 372.252562 78.272985 
L 375.531901 76.524051 
L 378.81124 74.784248 
L 382.090579 73.053482 
L 385.369917 71.331659 
L 388.649256 69.618687 
L 391.928595 67.914476 
L 395.207934 66.218937 
L 398.487273 64.531981 
" style="fill:none;stroke:#1f77b4;stroke-linecap:square;stroke-width:1.5;"/>
   </g>
   <g id="line2d_16">
    <path clip-path="url(#p48004491ce)" d="M 73.832727 295.488 
L 77.112066 291.489322 
L 80.391405 286.157752 
L 83.670744 282.825521 
L 86.950083 281.492628 
L 90.229421 278.826843 
L 93.50876 275.494612 
L 96.788099 267.497256 
L 100.067438 268.830149 
L 103.346777 266.83081 
L 106.626116 261.49924 
L 109.905455 264.165025 
L 113.184793 255.501223 
L 116.464132 244.171636 
L 119.743471 242.172298 
L 123.02281 248.83676 
L 126.302149 252.168992 
L 129.581488 242.172298 
L 132.860826 235.507835 
L 136.140165 238.840066 
L 139.419504 232.175603 
L 142.698843 236.840727 
L 145.978182 226.177587 
L 149.257521 223.511802 
L 152.53686 216.180893 
L 155.816198 216.847339 
L 159.095537 225.51114 
L 162.374876 222.845355 
L 165.654215 212.182215 
L 168.933554 196.85395 
L 172.212893 206.850645 
L 175.492231 202.185521 
L 178.77157 200.852628 
L 182.050909 202.185521 
L 185.330248 196.85395 
L 188.609587 198.186843 
L 191.888926 195.521058 
L 195.168264 204.18486 
L 198.447603 178.859901 
L 201.726942 184.857917 
L 205.006281 186.857256 
L 208.28562 187.523702 
L 211.564959 176.194116 
L 214.844298 168.863207 
L 218.123636 180.192793 
L 221.402975 163.531636 
L 224.682314 170.196099 
L 227.961653 178.193455 
L 231.240992 154.867835 
L 234.520331 164.864529 
L 237.799669 162.198744 
L 241.079008 161.532298 
L 244.358347 154.867835 
L 247.637686 158.866512 
L 250.917025 144.87114 
L 254.196364 144.204694 
L 257.475702 146.870479 
L 260.755041 142.205355 
L 264.03438 141.538909 
L 267.313719 151.535603 
L 270.593058 136.207339 
L 273.872397 120.879074 
L 277.151736 129.542876 
L 280.431074 124.211306 
L 283.710413 132.875107 
L 286.989752 133.541554 
L 290.269091 118.879736 
L 293.54843 132.208661 
L 296.827769 124.211306 
L 300.107107 121.545521 
L 303.386446 112.881719 
L 306.665785 112.881719 
L 309.945124 106.217256 
L 313.224463 101.552132 
L 316.503802 111.548826 
L 319.78314 101.552132 
L 323.062479 90.222545 
L 326.341818 110.88238 
L 329.621157 100.885686 
L 332.900496 90.888992 
L 336.179835 90.888992 
L 339.459174 96.887008 
L 342.738512 92.888331 
L 346.017851 96.220562 
L 349.29719 86.890314 
L 352.576529 80.892298 
L 355.855868 94.887669 
L 359.135207 79.559405 
L 362.414545 90.222545 
L 365.693884 73.561388 
L 368.973223 80.892298 
L 372.252562 80.892298 
L 375.531901 72.894942 
L 378.81124 79.559405 
L 382.090579 72.894942 
L 385.369917 53.568 
L 388.649256 62.898248 
L 391.928595 64.897587 
L 395.207934 66.230479 
L 398.487273 58.233124 
" style="fill:none;stroke:#ff7f0e;stroke-linecap:square;stroke-width:1.5;"/>
   </g>
   <g id="patch_3">
    <path d="M 57.6 307.584 
L 57.6 41.472 
" style="fill:none;stroke:#000000;stroke-linecap:square;stroke-linejoin:miter;stroke-width:0.8;"/>
   </g>
   <g id="patch_4">
    <path d="M 414.72 307.584 
L 414.72 41.472 
" style="fill:none;stroke:#000000;stroke-linecap:square;stroke-linejoin:miter;stroke-width:0.8;"/>
   </g>
   <g id="patch_5">
    <path d="M 57.6 307.584 
L 414.72 307.584 
" style="fill:none;stroke:#000000;stroke-linecap:square;stroke-linejoin:miter;stroke-width:0.8;"/>
   </g>
   <g id="patch_6">
    <path d="M 57.6 41.472 
L 414.72 41.472 
" style="fill:none;stroke:#000000;stroke-linecap:square;stroke-linejoin:miter;stroke-width:0.8;"/>
   </g>
   <g id="text_17">
    <text style="font-family:DejaVu Sans;font-size:12px;font-style:normal;font-weight:normal;text-anchor:middle;" transform="rotate(-0, 236.16, 35.472)" x="236.16" y="35.472">Expected Value in log(1+x) (Two-Coin Special Case) Algorithm</text>
   </g>
   <g id="legend_1">
    <g id="patch_7">
     <path d="M 64.6 78.82825 
L 359.873438 78.82825 
Q 361.873438 78.82825 361.873438 76.82825 
L 361.873438 48.472 
Q 361.873438 46.472 359.873438 46.472 
L 64.6 46.472 
Q 62.6 46.472 62.6 48.472 
L 62.6 76.82825 
Q 62.6 78.82825 64.6 78.82825 
z
" style="fill:#ffffff;opacity:0.8;stroke:#cccccc;stroke-linejoin:miter;"/>
    </g>
    <g id="line2d_17">
     <path d="M 66.6 54.570437 
L 86.6 54.570437 
" style="fill:none;stroke:#1f77b4;stroke-linecap:square;stroke-width:1.5;"/>
    </g>
    <g id="line2d_18"/>
    <g id="text_18">
     <text style="font-family:DejaVu Sans;font-size:10px;font-style:normal;font-weight:normal;text-anchor:start;" transform="rotate(-0, 94.6, 58.070437)" x="94.6" y="58.070437">log(1+x)</text>
    </g>
    <g id="line2d_19">
     <path d="M 66.6 69.248562 
L 86.6 69.248562 
" style="fill:none;stroke:#ff7f0e;stroke-linecap:square;stroke-width:1.5;"/>
    </g>
    <g id="line2d_20"/>
    <g id="text_19">
     <text style="font-family:DejaVu Sans;font-size:10px;font-style:normal;font-weight:normal;text-anchor:start;" transform="rotate(-0, 94.6, 72.748562)" x="94.6" y="72.748562">Simulated Mean of log(1+x) (Two-Coin Special Case)</text>
    </g>
   </g>
  </g>
 </g>
 <defs>
  <clipPath id="p48004491ce">
   <rect height="266.112" width="357.12" x="57.6" y="41.472"/>
  </clipPath>
 </defs>
</svg>

<svg height="460.8" viewBox="0 0 460.8 345.6" width="614.4" xmlns="http://www.w3.org/2000/svg" xmlns:xlink="http://www.w3.org/1999/xlink"><defs><style>*{stroke-linecap:butt;stroke-linejoin:round}</style></defs><g id="figure_1"><path d="M0 345.6h460.8V0H0z" fill="#fff" id="patch_1"/><g id="axes_1"><path d="M57.6 307.584h357.12V41.472H57.6z" fill="#fff" id="patch_2"/><g id="matplotlib.axis_1"><g id="xtick_1"><g id="line2d_1"><defs><path d="M0 0v3.5" id="mae0b82c5bc" stroke="#000" stroke-width=".8"/></defs><use x="73.8" xlink:href="#mae0b82c5bc" y="307.584" stroke="#000" stroke-width=".8"/></g><text x="73.8" y="322.182" font-family="DejaVu Sans" font-size="10" font-weight="400" text-anchor="middle" id="text_1">0.0</text></g><g id="xtick_2"><use x="138.744" xlink:href="#mae0b82c5bc" y="307.584" stroke="#000" stroke-width=".8" id="line2d_2"/><text x="138.744" y="322.182" font-family="DejaVu Sans" font-size="10" font-weight="400" text-anchor="middle" id="text_2">0.2</text></g><g id="xtick_3"><use x="203.688" xlink:href="#mae0b82c5bc" y="307.584" stroke="#000" stroke-width=".8" id="line2d_3"/><text x="203.688" y="322.182" font-family="DejaVu Sans" font-size="10" font-weight="400" text-anchor="middle" id="text_3">0.4</text></g><g id="xtick_4"><use x="268.632" xlink:href="#mae0b82c5bc" y="307.584" stroke="#000" stroke-width=".8" id="line2d_4"/><text x="268.632" y="322.182" font-family="DejaVu Sans" font-size="10" font-weight="400" text-anchor="middle" id="text_4">0.6</text></g><g id="xtick_5"><use x="333.576" xlink:href="#mae0b82c5bc" y="307.584" stroke="#000" stroke-width=".8" id="line2d_5"/><text x="333.576" y="322.182" font-family="DejaVu Sans" font-size="10" font-weight="400" text-anchor="middle" id="text_5">0.8</text></g><g id="xtick_6"><use x="398.52" xlink:href="#mae0b82c5bc" y="307.584" stroke="#000" stroke-width=".8" id="line2d_6"/><text x="398.52" y="322.182" font-family="DejaVu Sans" font-size="10" font-weight="400" text-anchor="middle" id="text_6">1.0</text></g><text x="236.16" y="335.861" font-family="DejaVu Sans" font-size="10" font-weight="400" text-anchor="middle" id="text_7">Input Coin&apos;s Heads Probability (λ)</text></g><g id="matplotlib.axis_2"><g id="ytick_1"><g id="line2d_7"><defs><path d="M0 0h-3.5" id="m3c548f5d7b" stroke="#000" stroke-width=".8"/></defs><use x="57.6" xlink:href="#m3c548f5d7b" y="295.488" stroke="#000" stroke-width=".8"/></g><text x="50.6" y="299.287" font-family="DejaVu Sans" font-size="10" font-weight="400" text-anchor="end" id="text_8">0.0</text></g><g id="ytick_2"><use x="57.6" xlink:href="#m3c548f5d7b" y="262.166" stroke="#000" stroke-width=".8" id="line2d_8"/><text x="50.6" y="265.965" font-family="DejaVu Sans" font-size="10" font-weight="400" text-anchor="end" id="text_9">0.1</text></g><g id="ytick_3"><use x="57.6" xlink:href="#m3c548f5d7b" y="228.843" stroke="#000" stroke-width=".8" id="line2d_9"/><text x="50.6" y="232.643" font-family="DejaVu Sans" font-size="10" font-weight="400" text-anchor="end" id="text_10">0.2</text></g><g id="ytick_4"><use x="57.6" xlink:href="#m3c548f5d7b" y="195.521" stroke="#000" stroke-width=".8" id="line2d_10"/><text x="50.6" y="199.32" font-family="DejaVu Sans" font-size="10" font-weight="400" text-anchor="end" id="text_11">0.3</text></g><g id="ytick_5"><use x="57.6" xlink:href="#m3c548f5d7b" y="162.199" stroke="#000" stroke-width=".8" id="line2d_11"/><text x="50.6" y="165.998" font-family="DejaVu Sans" font-size="10" font-weight="400" text-anchor="end" id="text_12">0.4</text></g><g id="ytick_6"><use x="57.6" xlink:href="#m3c548f5d7b" y="128.876" stroke="#000" stroke-width=".8" id="line2d_12"/><text x="50.6" y="132.676" font-family="DejaVu Sans" font-size="10" font-weight="400" text-anchor="end" id="text_13">0.5</text></g><g id="ytick_7"><use x="57.6" xlink:href="#m3c548f5d7b" y="95.554" stroke="#000" stroke-width=".8" id="line2d_13"/><text x="50.6" y="99.353" font-family="DejaVu Sans" font-size="10" font-weight="400" text-anchor="end" id="text_14">0.6</text></g><g id="ytick_8"><use x="57.6" xlink:href="#m3c548f5d7b" y="62.232" stroke="#000" stroke-width=".8" id="line2d_14"/><text x="50.6" y="66.031" font-family="DejaVu Sans" font-size="10" font-weight="400" text-anchor="end" id="text_15">0.7</text></g><text transform="rotate(-90 28.617 174.528)" x="28.617" y="174.528" font-family="DejaVu Sans" font-size="10" font-weight="400" text-anchor="middle" id="text_16">Simulated Mean / Function Value</text></g><path clip-path="url(#p48004491ce)" d="M73.833 295.455l3.28-3.348 3.278-3.315 3.28-3.282 3.28-3.25 3.278-3.219 3.28-3.188 3.28-3.157 3.278-3.128 3.28-3.1 3.28-3.07 3.278-3.042 3.28-3.015 3.28-2.987 3.278-2.962 3.28-2.935 3.28-2.91 3.278-2.884 3.28-2.86 3.28-2.834 3.279-2.812 3.279-2.788 3.28-2.764 3.279-2.742 3.279-2.72 3.28-2.697 3.279-2.676 3.279-2.655 3.28-2.633 3.279-2.613 3.279-2.593 3.28-2.572 3.279-2.553 3.279-2.534 3.28-2.514 3.279-2.496 3.279-2.476 3.28-2.46 3.279-2.44 3.279-2.423 3.28-2.405 3.279-2.388 3.279-2.372 3.28-2.354 3.279-2.338 3.279-2.322 3.28-2.305 3.279-2.29 3.279-2.274 3.28-2.259 3.279-2.243 3.279-2.229 3.28-2.213 3.279-2.2 3.279-2.184 3.28-2.17 3.279-2.157 3.279-2.142 3.28-2.13 3.279-2.115 3.28-2.102 3.278-2.088 3.28-2.076 3.28-2.063 3.278-2.05 3.28-2.038 3.28-2.025 3.278-2.013 3.28-2.001 3.28-1.99 3.278-1.977 3.28-1.965 3.28-1.954 3.278-1.943 3.28-1.931 3.28-1.92 3.278-1.91 3.28-1.898 3.28-1.888 3.278-1.877 3.28-1.866 3.28-1.856 3.279-1.846 3.279-1.836 3.28-1.826 3.279-1.815 3.279-1.806 3.28-1.796 3.279-1.786 3.279-1.777 3.28-1.768 3.279-1.758 3.279-1.749 3.28-1.74 3.279-1.73 3.279-1.722 3.28-1.713 3.279-1.705 3.279-1.695 3.28-1.687" fill="none" stroke="#1f77b4" stroke-linecap="square" stroke-width="1.5" id="line2d_15"/><path clip-path="url(#p48004491ce)" d="M73.833 295.488l3.28-3.999 3.278-5.331 3.28-3.332 3.28-1.333 3.278-2.666 3.28-3.332 3.28-7.998 3.278 1.333 3.28-2 3.28-5.33 3.278 2.665 3.28-8.664 3.28-11.33 3.278-1.999 3.28 6.665 3.28 3.332 3.278-9.997 3.28-6.664 3.28 3.332 3.279-6.664 3.279 4.665 3.28-10.663 3.279-2.666 3.279-7.331 3.28.666 3.279 8.664 3.279-2.666 3.28-10.663 3.279-15.328 3.279 9.997 3.28-4.665 3.279-1.333 3.279 1.333 3.28-5.332 3.279 1.333 3.279-2.666 3.28 8.664 3.279-25.325 3.279 5.998 3.28 2 3.279.666 3.279-11.33 3.28-7.33 3.279 11.329 3.279-16.661 3.28 6.664 3.279 7.997 3.279-23.325 3.28 9.997 3.279-2.666 3.279-.667 3.28-6.664 3.279 3.999 3.279-13.996 3.28-.666 3.279 2.665 3.279-4.665 3.28-.666 3.279 9.997 3.28-15.329 3.278-15.328 3.28 8.664 3.28-5.332 3.278 8.664 3.28.667 3.28-14.662 3.278 13.329 3.28-7.998 3.28-2.665 3.278-8.664h3.28l3.28-6.665 3.278-4.665 3.28 9.997 3.28-9.997 3.278-11.33 3.28 20.66 3.28-9.996 3.278-9.997h3.28l3.28 5.998 3.279-3.999 3.279 3.333 3.28-9.33 3.279-5.999 3.279 13.996 3.28-15.329 3.279 10.664 3.279-16.662 3.28 7.331h3.279l3.279-7.997 3.28 6.664 3.279-6.664 3.279-19.327 3.28 9.33 3.279 2 3.279 1.332 3.28-7.997" fill="none" stroke="#ff7f0e" stroke-linecap="square" stroke-width="1.5" id="line2d_16"/><path d="M57.6 307.584V41.472" fill="none" stroke="#000" stroke-linecap="square" stroke-width=".8" id="patch_3"/><path d="M414.72 307.584V41.472" fill="none" stroke="#000" stroke-linecap="square" stroke-width=".8" id="patch_4"/><path d="M57.6 307.584h357.12" fill="none" stroke="#000" stroke-linecap="square" stroke-width=".8" id="patch_5"/><path d="M57.6 41.472h357.12" fill="none" stroke="#000" stroke-linecap="square" stroke-width=".8" id="patch_6"/><text x="236.16" y="35.472" font-family="DejaVu Sans" font-size="12" font-weight="400" text-anchor="middle" id="text_17">Expected Value in log(1+x) (Two-Coin Special Case) Algorithm</text><g id="legend_1"><path d="M64.6 78.828h295.273q2 0 2-2V48.472q0-2-2-2H64.6q-2 0-2 2v28.356q0 2 2 2z" fill="#fff" opacity=".8" stroke="#ccc" id="patch_7"/><path d="M66.6 54.57h20" fill="none" stroke="#1f77b4" stroke-linecap="square" stroke-width="1.5" id="line2d_17"/><text x="94.6" y="58.07" font-family="DejaVu Sans" font-size="10" font-weight="400" id="text_18">log(1+x)</text><path d="M66.6 69.249h20" fill="none" stroke="#ff7f0e" stroke-linecap="square" stroke-width="1.5" id="line2d_19"/><text x="94.6" y="72.749" font-family="DejaVu Sans" font-size="10" font-weight="400" id="text_19">Simulated Mean of log(1+x) (Two-Coin Special Case)</text></g></g></g><defs><clipPath id="p48004491ce"><path d="M57.6 41.472h357.12v266.112H57.6z"/></clipPath></defs></svg>
